X: 37725
T: Soldier's Joy
R: hornpipe
M: 4/4
K: Dmajor
|:FG|AFDF AFDF|A2 d2 d2 cB|A2 AB AF DF|G2 F2 E2 FG|
AFDF AFDF|A2 d2 d2 e2|fafd e2 c2|d2 d2 d2:|
|:de|f2 f2 fagf|e2 e2 e2 de|f2 f2 fagf|edcB A2 d2|
f2 f2 fagf|e2 e2 e2 ge|fafd e2 c2|d2 d2 d2:|

